X:860
T:Temple Hill
R:reel
H:See also #859 with three parts
D:Lunasa: Redwood
Z:id:hn-reel-860
M:C|
L:1/8
K:Ador
EAAB e2dB | eBdB GAAG | EAAB edef |1 gedB BAAG :|2 gedB BAA2 ||
|: ea~a2 abag | egdg egdg | ea~a2 abag | egdB BA~A2 |
ea~a2 abag | egde ~g3a | b2af gefd | eged BAAG ||

